;FLAVOR:Marlin
;TIME:21033
;Filament used: 22.8749m
;Layer height: 0.28
;MINX:12.452
;MINY:39.952
;MINZ:0.28
;MAXX:207.548
;MAXY:180.048
;MAXZ:14
;Generated with Cura_SteamEngine 4.10.0
M140 S60
M105
M190 S60
M104 S200
M105
M109 S200
M82 ;absolute extrusion mode
; Ender 3 Custom Start G-code
G28;
G29;
G92 E0 ; Reset Extruder
G28 ; Home all axes
G1 Z2.0 F3000 ; Move Z Axis up little to prevent scratching of Heat Bed
G1 X0.1 Y20 Z0.3 F5000.0 ; Move to start position
G1 X0.1 Y200.0 Z0.3 F1500.0 E15 ; Draw the first line
G1 X0.4 Y200.0 Z0.3 F5000.0 ; Move to side a little
G1 X0.4 Y20 Z0.3 F1500.0 E30 ; Draw the second line
G92 E0 ; Reset Extruder
G1 Z2.0 F3000 ; Move Z Axis up little to prevent scratching of Heat Bed
G1 X5 Y20 Z0.3 F5000.0 ; Move over to prevent blob squish
G92 E0
G92 E0
G1 F1500 E-1.4
;LAYER_COUNT:50
;LAYER:0
M107
G0 F6000 X21.036 Y41.565 Z0.28
;TYPE:SKIRT
G1 F1500 E0
G1 F1200 X21.253 Y41.462 E0.01118
G1 X21.66 Y41.279 E0.03196
G1 X22.2 Y41.049 E0.05929
G1 X23.077 Y40.718 E0.10294
G1 X23.688 Y40.537 E0.13262
G1 X23.948 Y40.468 E0.14514
G1 X24.403 Y40.358 E0.16694
G1 X24.934 Y40.241 E0.19226
G1 X25.858 Y40.078 E0.23595
G1 X26.451 Y40.016 E0.26371
G1 X26.722 Y39.995 E0.27637
G1 X27.209 Y39.968 E0.29908
G1 X27.694 Y39.952 E0.32167
G1 X28.632 Y39.961 E0.36535
G1 X29.349 Y40.022 E0.39886
G1 X30.076 Y40.108 E0.43295
G1 X30.497 Y40.166 E0.45274
G1 X30.681 Y40.195 E0.46141
G1 X31.6 Y40.381 E0.50507
G1 X32.152 Y40.532 E0.53172
G1 X32.4 Y40.607 E0.54378
G1 X32.871 Y40.761 E0.56686
G1 X33.399 Y40.947 E0.59292
G1 X34.522 Y41.414 E0.64956
G1 X34.813 Y41.556 E0.66463
G1 X36.916 Y42.61 E0.77417
G1 X39.223 Y43.686 E0.8927
G1 X41.524 Y44.68 E1.00942
G1 X43.876 Y45.62 E1.12736
G1 X46.197 Y46.471 E1.24247
G1 X48.622 Y47.283 E1.36155
G1 X51.036 Y48.017 E1.47904
G1 X53.431 Y48.671 E1.59464
G1 X55.937 Y49.282 E1.71475
G1 X58.34 Y49.792 E1.82914
G1 X60.843 Y50.252 E1.94764
G1 X63.309 Y50.634 E2.06383
G1 X65.826 Y50.951 E2.18196
G1 X68.32 Y51.193 E2.29864
G1 X70.829 Y51.366 E2.41575
G1 X73.362 Y51.469 E2.53379
G1 X75.752 Y51.5 E2.64509
G1 X144.214 Y51.5 E5.83297
G1 X146.822 Y51.463 E5.95442
G1 X149.344 Y51.356 E6.07196
G1 X151.839 Y51.179 E6.18843
G1 X154.337 Y50.931 E6.30532
G1 X156.826 Y50.613 E6.42216
G1 X159.335 Y50.219 E6.54042
G1 X161.801 Y49.76 E6.65722
G1 X164.252 Y49.233 E6.77396
G1 X166.712 Y48.63 E6.89189
G1 X169.146 Y47.96 E7.00945
G1 X171.525 Y47.232 E7.12529
G1 X173.928 Y46.421 E7.24339
G1 X176.298 Y45.547 E7.36101
G1 X178.631 Y44.611 E7.47806
G1 X180.898 Y43.625 E7.59317
G1 X184.401 Y41.952 E7.77394
G1 X185.312 Y41.495 E7.8214
G1 X186.385 Y41.026 E7.87592
G1 X186.657 Y40.924 E7.88945
G1 X187.183 Y40.742 E7.91537
G1 X187.692 Y40.58 E7.94024
G1 X188.597 Y40.334 E7.98391
G1 X189.132 Y40.227 E8.00931
G1 X189.412 Y40.178 E8.02255
G1 X189.961 Y40.096 E8.0484
G1 X190.431 Y40.038 E8.07045
G1 X191.366 Y39.963 E8.11413
G1 X192.043 Y39.958 E8.14565
G1 X192.832 Y39.977 E8.1824
G1 X193.327 Y40 E8.20548
G1 X193.457 Y40.009 E8.21154
G1 X194.389 Y40.114 E8.25522
G1 X194.894 Y40.205 E8.27911
G1 X195.154 Y40.258 E8.29146
G1 X195.652 Y40.371 E8.31524
G1 X196.202 Y40.51 E8.34166
G1 X197.101 Y40.779 E8.38535
G1 X197.641 Y40.981 E8.4122
G1 X197.858 Y41.069 E8.4231
G1 X198.314 Y41.266 E8.44623
G1 X198.852 Y41.513 E8.4738
G1 X199.686 Y41.941 E8.51745
G1 X200.219 Y42.262 E8.54642
G1 X200.441 Y42.405 E8.55872
G1 X200.831 Y42.669 E8.58065
G1 X201.284 Y42.989 E8.60647
G1 X202.026 Y43.562 E8.65013
G1 X202.455 Y43.943 E8.67684
G1 X202.659 Y44.134 E8.68986
G1 X203.047 Y44.516 E8.71521
G1 X203.432 Y44.914 E8.74099
G1 X204.055 Y45.615 E8.78466
G1 X204.407 Y46.071 E8.81149
G1 X204.57 Y46.294 E8.82435
G1 X204.848 Y46.693 E8.84699
G1 X205.146 Y47.141 E8.87205
G1 X205.632 Y47.943 E8.91571
G1 X205.892 Y48.448 E8.94216
G1 X206.006 Y48.684 E8.95437
G1 X206.221 Y49.159 E8.97864
G1 X206.451 Y49.699 E9.00597
G1 X206.782 Y50.576 E9.04962
G1 X206.966 Y51.198 E9.07983
G1 X207.035 Y51.459 E9.0924
G1 X207.144 Y51.912 E9.11409
G1 X207.261 Y52.445 E9.1395
G1 X207.423 Y53.368 E9.18314
G1 X207.481 Y53.914 E9.20871
G1 X207.502 Y54.173 E9.22081
G1 X207.532 Y54.706 E9.24566
G1 X207.548 Y55.2 E9.26868
G1 X207.539 Y56.138 E9.31236
G1 X207.478 Y56.846 E9.34545
G1 X207.392 Y57.574 E9.37958
G1 X207.334 Y57.997 E9.39946
G1 X207.305 Y58.181 E9.40814
G1 X207.119 Y59.1 E9.4518
G1 X206.968 Y59.652 E9.47844
G1 X206.893 Y59.9 E9.49051
G1 X206.741 Y60.366 E9.51333
G1 X206.556 Y60.892 E9.5393
G1 X206.096 Y62.002 E9.59524
G1 X205.94 Y62.322 E9.61182
G1 X204.89 Y64.417 E9.72094
G1 X203.82 Y66.711 E9.83881
G1 X202.823 Y69.017 E9.95579
G1 X201.873 Y71.394 E10.07499
G1 X201.029 Y73.697 E10.1892
G1 X200.217 Y76.122 E10.30828
G1 X199.483 Y78.536 E10.42576
G1 X198.829 Y80.931 E10.54137
G1 X198.218 Y83.437 E10.66148
G1 X197.708 Y85.84 E10.77586
G1 X197.248 Y88.343 E10.89437
G1 X196.866 Y90.809 E11.01056
G1 X196.549 Y93.326 E11.12869
G1 X196.307 Y95.811 E11.24495
G1 X196.134 Y98.324 E11.36224
G1 X196.031 Y100.862 E11.48052
G1 X196 Y103.252 E11.59182
G1 X196 Y116.715 E12.21871
G1 X196.037 Y119.323 E12.34016
G1 X196.144 Y121.845 E12.4577
G1 X196.32 Y124.333 E12.57384
G1 X196.568 Y126.836 E12.69097
G1 X196.887 Y129.326 E12.80786
G1 X197.281 Y131.835 E12.92612
G1 X197.739 Y134.298 E13.04277
G1 X198.264 Y136.739 E13.15903
G1 X198.87 Y139.212 E13.27759
G1 X199.535 Y141.63 E13.39437
G1 X200.268 Y144.025 E13.51099
G1 X201.077 Y146.423 E13.62884
G1 X201.953 Y148.798 E13.74671
G1 X202.889 Y151.131 E13.86376
G1 X203.875 Y153.398 E13.97888
G1 X205.549 Y156.903 E14.15974
G1 X206.009 Y157.821 E14.20755
G1 X206.482 Y158.907 E14.26271
G1 X206.582 Y159.175 E14.27603
G1 X206.762 Y159.696 E14.3017
G1 X206.93 Y160.226 E14.32759
G1 X207.175 Y161.131 E14.37125
G1 X207.293 Y161.734 E14.39986
G1 X207.334 Y161.979 E14.41142
G1 X207.4 Y162.431 E14.43269
G1 X207.46 Y162.911 E14.45522
G1 X207.537 Y163.845 E14.49886
G1 X207.542 Y164.539 E14.53117
G1 X207.523 Y165.331 E14.56806
G1 X207.503 Y165.775 E14.58876
G1 X207.495 Y165.899 E14.59454
G1 X207.395 Y166.832 E14.63824
G1 X207.298 Y167.379 E14.6641
G1 X207.244 Y167.645 E14.67674
G1 X207.129 Y168.152 E14.70095
G1 X206.99 Y168.702 E14.72737
G1 X206.721 Y169.601 E14.77106
G1 X206.519 Y170.141 E14.79791
G1 X206.431 Y170.358 E14.80881
G1 X206.231 Y170.819 E14.83221
G1 X205.985 Y171.354 E14.85963
G1 X205.557 Y172.189 E14.90332
G1 X205.249 Y172.699 E14.93106
G1 X205.104 Y172.925 E14.94357
G1 X204.818 Y173.349 E14.96738
G1 X204.491 Y173.81 E14.9937
G1 X203.916 Y174.551 E15.03737
G1 X203.52 Y174.995 E15.06508
G1 X203.336 Y175.19 E15.07756
G1 X202.994 Y175.536 E15.10021
G1 X202.593 Y175.925 E15.12623
G1 X201.893 Y176.549 E15.16989
G1 X201.394 Y176.933 E15.19921
G1 X201.179 Y177.089 E15.21158
G1 X200.789 Y177.36 E15.2337
G1 X200.319 Y177.671 E15.25994
G1 X199.516 Y178.154 E15.30357
G1 X198.985 Y178.425 E15.33133
G1 X198.767 Y178.529 E15.34258
G1 X198.328 Y178.727 E15.365
G1 X197.786 Y178.957 E15.39242
G1 X196.908 Y179.286 E15.43608
G1 X196.321 Y179.46 E15.46459
G1 X196.062 Y179.529 E15.47707
G1 X195.588 Y179.644 E15.49978
G1 X195.055 Y179.761 E15.52519
G1 X194.132 Y179.923 E15.56883
G1 X193.553 Y179.984 E15.59594
G1 X193.284 Y180.005 E15.6085
G1 X192.791 Y180.032 E15.63149
G1 X192.306 Y180.048 E15.65409
G1 X191.368 Y180.039 E15.69777
G1 X190.651 Y179.978 E15.73127
G1 X189.924 Y179.892 E15.76536
G1 X189.503 Y179.834 E15.78515
G1 X189.319 Y179.805 E15.79382
G1 X188.4 Y179.619 E15.83748
G1 X187.848 Y179.468 E15.86413
G1 X187.6 Y179.393 E15.87619
G1 X187.129 Y179.239 E15.89927
G1 X186.601 Y179.053 E15.92534
G1 X185.498 Y178.596 E15.98093
G1 X185.178 Y178.44 E15.99751
G1 X183.083 Y177.39 E16.10663
G1 X180.777 Y176.314 E16.22512
G1 X178.476 Y175.32 E16.34183
G1 X176.124 Y174.38 E16.45977
G1 X173.795 Y173.526 E16.57528
G1 X171.378 Y172.717 E16.69396
G1 X168.964 Y171.983 E16.81145
G1 X166.569 Y171.329 E16.92706
G1 X164.063 Y170.718 E17.04716
G1 X161.66 Y170.208 E17.16155
G1 X159.157 Y169.748 E17.28005
G1 X156.691 Y169.366 E17.39625
G1 X154.174 Y169.049 E17.51438
G1 X151.68 Y168.807 E17.63105
G1 X149.171 Y168.634 E17.74816
G1 X146.638 Y168.531 E17.8662
G1 X144.248 Y168.5 E17.9775
G1 X75.786 Y168.5 E21.16538
G1 X73.178 Y168.537 E21.28683
G1 X70.656 Y168.644 E21.40437
G1 X68.161 Y168.821 E21.52084
G1 X65.663 Y169.069 E21.63773
G1 X63.174 Y169.387 E21.75457
G1 X60.665 Y169.781 E21.87283
G1 X58.199 Y170.24 E21.98963
G1 X55.748 Y170.767 E22.10637
G1 X53.288 Y171.37 E22.22431
G1 X50.854 Y172.04 E22.34186
G1 X48.475 Y172.768 E22.45771
G1 X46.072 Y173.579 E22.5758
G1 X43.702 Y174.453 E22.69342
G1 X41.369 Y175.389 E22.81048
G1 X39.102 Y176.375 E22.92559
G1 X35.599 Y178.048 E23.10635
G1 X34.688 Y178.505 E23.15381
G1 X33.607 Y178.977 E23.20873
G1 X33.337 Y179.078 E23.22216
G1 X32.808 Y179.261 E23.24822
G1 X32.275 Y179.43 E23.27426
G1 X31.369 Y179.675 E23.31796
G1 X30.758 Y179.794 E23.34695
G1 X30.5 Y179.837 E23.35913
G1 X30.039 Y179.904 E23.38082
G1 X29.569 Y179.962 E23.40287
G1 X28.634 Y180.037 E23.44655
G1 X27.957 Y180.042 E23.47807
G1 X27.168 Y180.023 E23.51482
G1 X26.673 Y180 E23.53789
G1 X26.543 Y179.991 E23.54396
G1 X25.611 Y179.886 E23.58763
G1 X25.106 Y179.795 E23.61153
G1 X24.846 Y179.742 E23.62388
G1 X24.348 Y179.629 E23.64766
G1 X23.798 Y179.49 E23.67408
G1 X22.899 Y179.221 E23.71777
G1 X22.359 Y179.019 E23.74462
G1 X22.142 Y178.931 E23.75552
G1 X21.666 Y178.725 E23.77967
G1 X21.12 Y178.473 E23.80768
G1 X20.286 Y178.044 E23.85135
G1 X19.769 Y177.73 E23.87951
G1 X19.555 Y177.592 E23.89137
G1 X19.177 Y177.337 E23.9126
G1 X18.726 Y177.019 E23.9383
G1 X17.983 Y176.446 E23.98199
G1 X17.543 Y176.055 E24.0094
G1 X17.336 Y175.861 E24.02261
G1 X16.952 Y175.484 E24.04766
G1 X16.565 Y175.084 E24.07358
G1 X15.943 Y174.382 E24.11725
G1 X15.57 Y173.898 E24.14571
G1 X15.411 Y173.679 E24.15831
G1 X15.147 Y173.299 E24.17985
G1 X14.843 Y172.841 E24.20545
G1 X14.358 Y172.038 E24.24913
G1 X14.084 Y171.502 E24.27716
G1 X13.975 Y171.274 E24.28893
G1 X13.779 Y170.84 E24.3111
G1 X13.549 Y170.3 E24.33844
G1 X13.218 Y169.423 E24.38208
G1 X13.037 Y168.812 E24.41176
G1 X12.968 Y168.552 E24.42428
G1 X12.86 Y168.105 E24.4457
G1 X12.743 Y167.576 E24.47092
G1 X12.579 Y166.653 E24.51458
G1 X12.515 Y166.045 E24.54304
G1 X12.494 Y165.772 E24.55579
G1 X12.468 Y165.291 E24.57822
G1 X12.452 Y164.807 E24.60077
G1 X12.461 Y163.87 E24.6444
G1 X12.522 Y163.154 E24.67787
G1 X12.608 Y162.426 E24.712
G1 X12.666 Y162.003 E24.73188
G1 X12.695 Y161.819 E24.74055
G1 X12.881 Y160.9 E24.78421
G1 X13.037 Y160.333 E24.8116
G1 X13.113 Y160.083 E24.82376
G1 X13.248 Y159.668 E24.84409
G1 X13.424 Y159.162 E24.86903
G1 X13.882 Y158.047 E24.92516
G1 X14.06 Y157.678 E24.94424
G1 X15.11 Y155.583 E25.05335
G1 X16.18 Y153.289 E25.17122
G1 X17.178 Y150.979 E25.28839
G1 X18.127 Y148.606 E25.4074
G1 X18.971 Y146.303 E25.52161
G1 X19.783 Y143.878 E25.64069
G1 X20.517 Y141.464 E25.75818
G1 X21.173 Y139.063 E25.87408
G1 X21.782 Y136.563 E25.99389
G1 X22.292 Y134.16 E26.10828
G1 X22.752 Y131.657 E26.22678
G1 X23.135 Y129.186 E26.34321
G1 X23.451 Y126.674 E26.46111
G1 X23.693 Y124.18 E26.57778
G1 X23.866 Y121.671 E26.69489
G1 X23.969 Y119.138 E26.81293
G1 X24 Y116.748 E26.92423
G1 X24 Y103.285 E27.55112
G1 X23.963 Y100.677 E27.67258
G1 X23.856 Y98.155 E27.79012
G1 X23.679 Y95.661 E27.90654
G1 X23.432 Y93.164 E28.02338
G1 X23.112 Y90.665 E28.14069
G1 X22.721 Y88.176 E28.25801
G1 X22.259 Y85.693 E28.37562
G1 X21.733 Y83.248 E28.49207
G1 X21.128 Y80.778 E28.61048
G1 X20.465 Y78.37 E28.72678
G1 X19.725 Y75.954 E28.84444
G1 X18.918 Y73.562 E28.96199
G1 X18.053 Y71.215 E29.07846
G1 X17.111 Y68.869 E29.19618
G1 X16.125 Y66.602 E29.31129
G1 X14.452 Y63.099 E29.49205
G1 X13.992 Y62.182 E29.53982
G1 X13.509 Y61.071 E29.59623
G1 X13.41 Y60.804 E29.60949
G1 X13.233 Y60.287 E29.63494
G1 X13.065 Y59.754 E29.66096
G1 X12.821 Y58.848 E29.70465
G1 X12.708 Y58.269 E29.73212
G1 X12.665 Y58.013 E29.74421
G1 X12.597 Y57.55 E29.766
G1 X12.539 Y57.084 E29.78787
G1 X12.463 Y56.149 E29.83155
G1 X12.458 Y55.461 E29.86358
G1 X12.477 Y54.669 E29.90047
G1 X12.5 Y54.173 E29.92359
G1 X12.509 Y54.043 E29.92966
G1 X12.614 Y53.111 E29.97333
G1 X12.705 Y52.606 E29.99723
G1 X12.758 Y52.346 E30.00958
G1 X12.875 Y51.835 E30.03399
G1 X13.018 Y51.272 E30.06104
G1 X13.287 Y50.374 E30.10469
G1 X13.508 Y49.792 E30.13368
G1 X13.592 Y49.588 E30.14395
G1 X13.773 Y49.171 E30.16512
G1 X14.021 Y48.633 E30.19271
G1 X14.45 Y47.799 E30.23638
G1 X14.751 Y47.3 E30.26351
G1 X14.894 Y47.077 E30.27585
G1 X15.163 Y46.678 E30.29826
G1 X15.483 Y46.224 E30.32412
G1 X16.055 Y45.481 E30.36778
G1 X16.481 Y45.003 E30.3976
G1 X16.672 Y44.801 E30.41054
G1 X16.988 Y44.481 E30.43148
G1 X17.379 Y44.1 E30.4569
G1 X18.078 Y43.474 E30.5006
G1 X18.588 Y43.08 E30.5306
G1 X18.815 Y42.915 E30.54367
G1 X19.213 Y42.639 E30.56622
G1 X19.683 Y42.328 E30.59247
G1 X20.486 Y41.845 E30.6361
G1 X21.036 Y41.565 E30.66484
G0 F6000 X21.208 Y41.926
G1 F1200 X21.425 Y41.823 E30.67602
G1 X21.816 Y41.647 E30.69599
G1 X22.356 Y41.417 E30.72332
G1 X23.218 Y41.093 E30.7662
G1 X23.791 Y40.924 E30.79402
G1 X24.051 Y40.855 E30.80654
G1 X24.489 Y40.748 E30.82754
G1 X25.02 Y40.631 E30.85286
G1 X25.927 Y40.472 E30.89573
G1 X26.482 Y40.415 E30.92171
G1 X26.753 Y40.394 E30.93437
G1 X27.222 Y40.368 E30.95624
G1 X27.707 Y40.352 E30.97884
G1 X28.628 Y40.361 E31.02173
G1 X29.302 Y40.419 E31.05323
G1 X30.029 Y40.505 E31.08731
G1 X30.434 Y40.561 E31.10635
G1 X30.618 Y40.59 E31.11503
G1 X31.521 Y40.773 E31.15793
G1 X32.036 Y40.915 E31.1828
G1 X32.284 Y40.99 E31.19487
G1 X32.738 Y41.138 E31.2171
G1 X33.266 Y41.324 E31.24317
G1 X34.349 Y41.774 E31.29778
G1 X34.634 Y41.913 E31.31254
G1 X36.776 Y42.986 E31.4241
G1 X39.032 Y44.039 E31.54003
G1 X41.379 Y45.052 E31.65906
G1 X43.715 Y45.986 E31.77621
G1 X46.08 Y46.854 E31.89351
G1 X48.527 Y47.673 E32.01367
G1 X50.878 Y48.388 E32.12809
G1 X53.379 Y49.071 E32.24881
G1 X55.831 Y49.668 E32.36632
G1 X58.249 Y50.182 E32.48143
G1 X60.781 Y50.647 E32.6013
G1 X63.269 Y51.032 E32.71853
G1 X65.774 Y51.347 E32.8361
G1 X68.287 Y51.592 E32.95367
G1 X70.822 Y51.766 E33.07198
G1 X73.341 Y51.869 E33.18938
G1 X75.747 Y51.9 E33.30142
G1 X144.22 Y51.9 E36.48981
G1 X146.845 Y51.863 E36.61205
G1 X149.353 Y51.756 E36.72894
G1 X151.87 Y51.578 E36.84644
G1 X154.394 Y51.328 E36.96454
G1 X156.902 Y51.007 E37.08228
G1 X159.364 Y50.62 E37.19832
G1 X161.886 Y50.151 E37.31777
G1 X164.36 Y49.619 E37.43561
G1 X166.808 Y49.019 E37.55297
G1 X169.231 Y48.352 E37.66999
G1 X171.665 Y47.607 E37.78852
G1 X174.09 Y46.789 E37.90769
G1 X176.407 Y45.934 E38.02269
G1 X178.804 Y44.972 E38.14296
G1 X181.07 Y43.986 E38.25803
G1 X184.608 Y42.297 E38.44058
G1 X185.492 Y41.853 E38.48664
G1 X186.525 Y41.401 E38.53915
G1 X186.797 Y41.299 E38.55267
G1 X187.304 Y41.123 E38.57766
G1 X187.813 Y40.961 E38.60254
G1 X188.702 Y40.72 E38.64543
G1 X189.201 Y40.621 E38.66911
G1 X189.481 Y40.572 E38.68235
G1 X190.01 Y40.493 E38.70726
G1 X190.48 Y40.435 E38.72931
G1 X191.398 Y40.362 E38.77219
G1 X192.033 Y40.358 E38.80176
G1 X192.822 Y40.377 E38.83851
G1 X193.299 Y40.399 E38.86074
G1 X193.429 Y40.408 E38.86681
G1 X194.344 Y40.512 E38.90969
G1 X194.814 Y40.597 E38.93193
G1 X195.074 Y40.65 E38.94429
G1 X195.554 Y40.759 E38.96721
G1 X196.104 Y40.898 E38.99362
G1 X196.986 Y41.162 E39.03649
G1 X197.491 Y41.352 E39.06162
G1 X197.708 Y41.44 E39.07252
G1 X198.147 Y41.63 E39.09479
G1 X198.685 Y41.877 E39.12236
G1 X199.504 Y42.297 E39.16522
G1 X200.002 Y42.599 E39.19234
G1 X200.224 Y42.742 E39.20463
G1 X200.6 Y42.995 E39.22574
G1 X201.053 Y43.315 E39.25156
G1 X201.781 Y43.879 E39.29444
G1 X202.182 Y44.235 E39.31941
G1 X202.386 Y44.426 E39.33242
G1 X202.76 Y44.794 E39.35686
G1 X203.145 Y45.192 E39.38264
G1 X203.755 Y45.881 E39.42549
G1 X204.084 Y46.307 E39.45055
G1 X204.247 Y46.53 E39.46342
G1 X204.515 Y46.914 E39.48522
G1 X204.813 Y47.362 E39.51027
G1 X205.289 Y48.15 E39.55314
G1 X205.532 Y48.622 E39.57786
G1 X205.646 Y48.858 E39.59007
G1 X205.853 Y49.315 E39.61343
G1 X206.083 Y49.855 E39.64076
G1 X206.407 Y50.717 E39.68364
G1 X206.579 Y51.3 E39.71194
G1 X206.648 Y51.561 E39.72451
G1 X206.753 Y51.997 E39.74539
G1 X206.87 Y52.53 E39.7708
G1 X207.029 Y53.437 E39.81368
