;FLAVOR:Marlin
;TIME:35116
;Filament used: 36.1433m
;Layer height: 0.28
;MINX:12.448
;MINY:39.951
;MINZ:0.28
;MAXX:207.542
;MAXY:180.05
;MAXZ:28
;Generated with Cura_SteamEngine 4.10.0
M140 S60
M105
M190 S60
M104 S200
M105
M109 S200
M82 ;absolute extrusion mode
; Ender 3 Custom Start G-code
G28;
G29;
G92 E0 ; Reset Extruder
G28 ; Home all axes
G1 Z2.0 F3000 ; Move Z Axis up little to prevent scratching of Heat Bed
G1 X0.1 Y20 Z0.3 F5000.0 ; Move to start position
G1 X0.1 Y200.0 Z0.3 F1500.0 E15 ; Draw the first line
G1 X0.4 Y200.0 Z0.3 F5000.0 ; Move to side a little
G1 X0.4 Y20 Z0.3 F1500.0 E30 ; Draw the second line
G92 E0 ; Reset Extruder
G1 Z2.0 F3000 ; Move Z Axis up little to prevent scratching of Heat Bed
G1 X5 Y20 Z0.3 F5000.0 ; Move over to prevent blob squish
G92 E0
G92 E0
G1 F1500 E-1.4
;LAYER_COUNT:100
;LAYER:0
M107
G0 F6000 X21.006 Y41.58 Z0.28
;TYPE:SKIRT
G1 F1500 E0
G1 F1200 X21.247 Y41.465 E0.01243
G1 X21.71 Y41.257 E0.03607
G1 X22.253 Y41.028 E0.06351
G1 X23.131 Y40.701 E0.10714
G1 X23.671 Y40.541 E0.13336
G1 X23.857 Y40.491 E0.14233
G1 X24.393 Y40.361 E0.16801
G1 X24.773 Y40.279 E0.18611
G1 X25.697 Y40.121 E0.22976
G1 X26.383 Y40.055 E0.26185
G1 X27.171 Y40.004 E0.29862
G1 X27.539 Y39.986 E0.31578
G1 X27.893 Y39.975 E0.33227
G1 X28.831 Y39.986 E0.37595
G1 X29.375 Y40.029 E0.40136
G1 X29.73 Y40.066 E0.41798
G1 X30.074 Y40.108 E0.43412
G1 X30.434 Y40.157 E0.45104
G1 X31.357 Y40.322 E0.4947
G1 X32.323 Y40.586 E0.54133
G1 X32.888 Y40.768 E0.56897
G1 X33.25 Y40.892 E0.58678
G1 X33.491 Y40.979 E0.59872
G1 X34.359 Y41.334 E0.64238
G1 X34.87 Y41.586 E0.66891
G1 X35.662 Y42.002 E0.71057
G1 X37.998 Y43.187 E0.83254
G1 X40.261 Y44.256 E0.94908
G1 X42.592 Y45.277 E1.06758
G1 X44.935 Y46.227 E1.1853
G1 X47.274 Y47.096 E1.30149
G1 X49.642 Y47.901 E1.41795
G1 X52.049 Y48.645 E1.53526
G1 X54.481 Y49.322 E1.65281
G1 X56.912 Y49.926 E1.76945
G1 X59.401 Y50.47 E1.88809
G1 X61.885 Y50.937 E2.00578
G1 X64.323 Y51.327 E2.12074
G1 X66.848 Y51.657 E2.23932
G1 X69.342 Y51.911 E2.35605
G1 X71.836 Y52.095 E2.4725
G1 X74.358 Y52.21 E2.59005
G1 X77.237 Y52.254 E2.72413
G1 X142.79 Y52.254 E5.77655
G1 X145.398 Y52.217 E5.898
G1 X147.92 Y52.11 E6.01554
G1 X150.414 Y51.933 E6.13197
G1 X152.914 Y51.685 E6.24895
G1 X155.407 Y51.366 E6.36598
G1 X157.9 Y50.975 E6.48348
G1 X160.39 Y50.512 E6.60141
G1 X162.854 Y49.982 E6.71877
G1 X165.256 Y49.393 E6.83393
G1 X167.712 Y48.717 E6.95255
G1 X170.122 Y47.979 E7.06991
G1 X172.514 Y47.172 E7.18746
G1 X174.854 Y46.309 E7.3036
G1 X177.21 Y45.363 E7.42181
G1 X179.508 Y44.363 E7.53851
G1 X181.785 Y43.296 E7.6556
G1 X184.824 Y41.748 E7.81441
G1 X185.08 Y41.613 E7.82789
G1 X185.927 Y41.21 E7.87156
G1 X186.444 Y41.006 E7.89744
G1 X186.846 Y40.859 E7.91737
G1 X187.181 Y40.743 E7.93388
G1 X187.539 Y40.625 E7.95143
G1 X188.441 Y40.37 E7.99508
G1 X189.358 Y40.193 E8.03857
G1 X189.981 Y40.1 E8.0679
G1 X190.369 Y40.049 E8.08612
G1 X190.652 Y40.017 E8.09938
G1 X191.588 Y39.951 E8.14308
G1 X192.182 Y39.951 E8.17074
G1 X192.593 Y39.962 E8.18988
G1 X192.914 Y39.975 E8.20484
G1 X193.307 Y39.997 E8.22317
G1 X194.24 Y40.089 E8.26682
G1 X195.187 Y40.267 E8.31169
G1 X195.655 Y40.376 E8.33407
G1 X195.981 Y40.457 E8.34971
G1 X196.29 Y40.539 E8.36459
G1 X197.385 Y40.892 E8.41817
G1 X197.794 Y41.055 E8.43867
G1 X198.137 Y41.2 E8.45601
G1 X198.387 Y41.309 E8.46871
G1 X198.743 Y41.47 E8.4869
G1 X199.58 Y41.893 E8.53057
G1 X200.203 Y42.269 E8.56445
G1 X200.851 Y42.69 E8.60044
G1 X201.184 Y42.915 E8.61915
G1 X201.349 Y43.031 E8.62854
G1 X202.093 Y43.603 E8.67224
G1 X202.546 Y44.005 E8.70044
G1 X202.674 Y44.125 E8.70861
G1 X203.033 Y44.477 E8.73202
G1 X203.327 Y44.779 E8.75165
G1 X203.952 Y45.478 E8.79531
G1 X204.263 Y45.876 E8.81883
G1 X204.483 Y46.171 E8.83597
G1 X204.796 Y46.614 E8.86122
G1 X205.109 Y47.08 E8.88736
G1 X205.599 Y47.88 E8.93105
G1 X206.002 Y48.682 E8.97284
G1 X206.181 Y49.078 E8.99308
G1 X206.316 Y49.39 E9.0089
G1 X206.495 Y49.821 E9.03064
G1 X206.817 Y50.702 E9.07431
G1 X207.018 Y51.413 E9.10872
G1 X207.079 Y51.661 E9.12061
G1 X207.166 Y52.047 E9.13903
G1 X207.269 Y52.542 E9.16258
G1 X207.421 Y53.468 E9.20627
G1 X207.472 Y53.993 E9.23083
G1 X207.499 Y54.368 E9.24834
G1 X207.52 Y54.756 E9.26643
G1 X207.536 Y55.194 E9.28684
G1 X207.53 Y56.132 E9.33052
G1 X207.48 Y56.775 E9.36055
G1 X207.408 Y57.443 E9.39184
G1 X207.362 Y57.811 E9.40911
G1 X207.338 Y57.98 E9.41705
G1 X207.166 Y58.902 E9.46073
G1 X206.907 Y59.838 E9.50595
G1 X206.727 Y60.391 E9.53303
G1 X206.606 Y60.742 E9.55032
G1 X206.521 Y60.976 E9.56191
G1 X206.164 Y61.843 E9.60557
G1 X205.945 Y62.289 E9.62871
G1 X204.665 Y64.754 E9.75804
G1 X203.588 Y66.983 E9.87331
G1 X202.549 Y69.294 E9.9913
G1 X201.562 Y71.666 E10.11093
G1 X200.69 Y73.95 E10.22477
G1 X199.85 Y76.345 E10.34295
G1 X199.089 Y78.731 E10.45956
G1 X198.394 Y81.145 E10.57654
G1 X197.756 Y83.614 E10.69528
G1 X197.199 Y86.054 E10.81182
G1 X196.711 Y88.524 E10.92906
G1 X196.29 Y91.016 E11.04674
G1 X195.941 Y93.504 E11.16372
G1 X195.667 Y95.966 E11.27907
G1 X195.457 Y98.507 E11.3978
G1 X195.321 Y100.99 E11.51359
G1 X195.246 Y104.721 E11.68735
G1 X195.246 Y115.309 E12.18038
G1 X195.283 Y117.917 E12.30183
G1 X195.39 Y120.438 E12.41932
G1 X195.567 Y122.933 E12.53579
G1 X195.815 Y125.433 E12.65277
G1 X196.134 Y127.926 E12.7698
G1 X196.525 Y130.419 E12.88731
G1 X196.988 Y132.909 E13.00524
G1 X197.518 Y135.373 E13.1226
G1 X198.107 Y137.775 E13.23776
G1 X198.783 Y140.231 E13.35637
G1 X199.521 Y142.641 E13.47374
G1 X200.328 Y145.033 E13.59129
G1 X201.191 Y147.373 E13.70742
G1 X202.137 Y149.729 E13.82564
G1 X203.137 Y152.027 E13.94234
G1 X204.19 Y154.274 E14.05788
G1 X205.849 Y157.515 E14.22742
G1 X205.966 Y157.748 E14.23956
G1 X206.474 Y158.926 E14.2993
G1 X206.723 Y159.611 E14.33324
G1 X207.018 Y160.552 E14.37916
G1 X207.08 Y160.786 E14.39043
G1 X207.331 Y162.009 E14.44856
G1 X207.377 Y162.323 E14.46334
G1 X207.413 Y162.596 E14.47616
G1 X207.466 Y163.034 E14.49671
G1 X207.539 Y163.969 E14.54038
G1 X207.542 Y164.652 E14.57218
G1 X207.524 Y165.319 E14.60325
G1 X207.505 Y165.727 E14.62227
G1 X207.498 Y165.836 E14.62735
G1 X207.398 Y166.768 E14.671
G1 X207.285 Y167.398 E14.7008
G1 X207.138 Y168.096 E14.73402
G1 X207.041 Y168.514 E14.754
G1 X207.005 Y168.657 E14.76087
G1 X206.738 Y169.556 E14.80454
G1 X206.538 Y170.091 E14.83113
G1 X206.433 Y170.351 E14.84419
G1 X206.233 Y170.815 E14.86771
G1 X205.98 Y171.367 E14.89599
G1 X205.553 Y172.202 E14.93966
G1 X205.244 Y172.715 E14.96755
G1 X205.107 Y172.929 E14.97938
G1 X204.808 Y173.373 E15.0043
G1 X204.648 Y173.598 E15.01716
G1 X204.466 Y173.846 E15.03148
G1 X204.279 Y174.094 E15.04595
G1 X203.378 Y175.144 E15.11037
G1 X202.899 Y175.636 E15.14234
G1 X202.216 Y176.28 E15.18606
G1 X201.386 Y176.932 E15.2352
G1 X200.872 Y177.297 E15.26456
G1 X200.576 Y177.499 E15.28124
G1 X200.351 Y177.648 E15.29381
G1 X199.548 Y178.132 E15.33747
G1 X198.975 Y178.424 E15.36741
G1 X198.471 Y178.662 E15.39337
G1 X198.147 Y178.809 E15.40993
G1 X197.9 Y178.916 E15.42247
G1 X197.024 Y179.251 E15.46614
G1 X196.417 Y179.435 E15.49567
G1 X196.193 Y179.496 E15.50648
G1 X195.699 Y179.619 E15.53019
G1 X195.121 Y179.748 E15.55777
G1 X194.198 Y179.913 E15.60143
G1 X193.643 Y179.974 E15.62742
G1 X193.428 Y179.992 E15.63747
G1 X193.033 Y180.018 E15.6559
G1 X192.738 Y180.031 E15.66965
G1 X192.111 Y180.05 E15.69886
G1 X191.173 Y180.038 E15.74254
G1 X190.28 Y179.953 E15.78431
G1 X189.909 Y179.902 E15.80175
G1 X189.571 Y179.85 E15.81767
G1 X189.252 Y179.796 E15.83274
G1 X187.93 Y179.487 E15.89596
G1 X187.633 Y179.398 E15.91039
G1 X187.224 Y179.267 E15.93039
G1 X186.693 Y179.085 E15.95653
G1 X185.82 Y178.743 E16.00019
G1 X185.387 Y178.541 E16.02244
G1 X185.13 Y178.414 E16.03579
G1 X184.849 Y178.27 E16.05049
G1 X184.676 Y178.178 E16.05961
G1 X182.364 Y176.992 E16.18061
G1 X180.064 Y175.894 E16.29928
G1 X177.774 Y174.879 E16.41592
G1 X175.461 Y173.929 E16.53235
G1 X173.099 Y173.04 E16.64987
G1 X170.713 Y172.216 E16.76741
G1 X168.32 Y171.464 E16.88421
G1 X165.914 Y170.784 E17.00063
G1 X163.421 Y170.153 E17.12038
G1 X161.008 Y169.614 E17.23551
G1 X158.525 Y169.136 E17.35325
G1 X156.03 Y168.727 E17.47098
G1 X153.557 Y168.391 E17.58719
G1 X151.06 Y168.125 E17.70412
G1 X148.543 Y167.928 E17.82168
G1 X146.021 Y167.803 E17.93926
G1 X142.784 Y167.746 E18.09001
G1 X77.212 Y167.746 E21.14331
G1 X74.604 Y167.783 E21.26477
G1 X72.082 Y167.89 E21.38231
G1 X69.588 Y168.067 E21.49873
G1 X67.088 Y168.315 E21.61571
G1 X64.595 Y168.634 E21.73274
G1 X62.102 Y169.025 E21.85025
G1 X59.612 Y169.488 E21.96818
G1 X57.148 Y170.018 E22.08554
G1 X54.746 Y170.607 E22.2007
G1 X52.29 Y171.283 E22.31931
G1 X49.88 Y172.021 E22.43668
G1 X47.488 Y172.828 E22.55422
G1 X45.148 Y173.691 E22.67036
G1 X42.792 Y174.637 E22.78858
G1 X40.496 Y175.636 E22.90517
G1 X38.218 Y176.704 E23.02232
G1 X35.741 Y177.954 E23.15152
G1 X34.847 Y178.422 E23.1985
G1 X33.999 Y178.822 E23.24216
G1 X33.374 Y179.062 E23.27334
G1 X32.854 Y179.244 E23.29899
G1 X32.503 Y179.361 E23.31622
G1 X32.228 Y179.447 E23.32964
G1 X31.322 Y179.688 E23.37329
G1 X30.761 Y179.797 E23.3999
G1 X30.534 Y179.835 E23.41062
G1 X30.006 Y179.91 E23.43545
G1 X29.463 Y179.974 E23.46091
G1 X28.527 Y180.044 E23.50462
G1 X27.911 Y180.047 E23.5333
G1 X27.37 Y180.034 E23.5585
G1 X26.975 Y180.017 E23.57691
G1 X26.625 Y179.996 E23.59324
G1 X25.692 Y179.9 E23.63691
G1 X25 Y179.776 E23.66964
G1 X24.722 Y179.717 E23.68288
G1 X24.292 Y179.617 E23.70343
G1 X23.801 Y179.492 E23.72703
G1 X22.903 Y179.222 E23.77069
G1 X22.268 Y178.979 E23.80235
G1 X21.998 Y178.866 E23.81598
G1 X21.59 Y178.685 E23.83676
G1 X21.104 Y178.458 E23.86174
G1 X20.272 Y178.026 E23.90539
G1 X19.706 Y177.677 E23.93635
G1 X19.222 Y177.358 E23.96335
G1 X18.937 Y177.164 E23.9794
G1 X18.693 Y176.992 E23.9933
G1 X17.95 Y176.419 E24.03699
G1 X17.431 Y175.953 E24.06947
G1 X16.979 Y175.521 E24.09858
G1 X16.135 Y174.618 E24.15614
G1 X16.039 Y174.503 E24.16311
G1 X15.604 Y173.948 E24.19595
G1 X15.427 Y173.706 E24.20991
G1 X15.125 Y173.27 E24.23461
G1 X14.834 Y172.829 E24.25921
G1 X14.351 Y172.025 E24.30288
G1 X14.067 Y171.465 E24.33212
G1 X13.933 Y171.181 E24.34674
G1 X13.73 Y170.725 E24.36999
G1 X13.51 Y170.198 E24.39658
G1 X13.186 Y169.318 E24.44024
G1 X13.012 Y168.716 E24.46942
G1 X12.953 Y168.488 E24.48039
G1 X12.848 Y168.044 E24.50163
G1 X12.742 Y167.551 E24.52511
G1 X12.584 Y166.627 E24.56876
G1 X12.518 Y165.941 E24.60085
G1 X12.474 Y165.253 E24.63296
G1 X12.456 Y164.85 E24.65174
G1 X12.451 Y164.666 E24.66031
G1 X12.466 Y163.728 E24.70399
G1 X12.521 Y163.095 E24.73358
G1 X12.592 Y162.485 E24.76218
G1 X12.662 Y161.985 E24.78568
G1 X12.694 Y161.789 E24.79493
G1 X13.006 Y160.425 E24.86009
G1 X13.075 Y160.193 E24.87136
G1 X13.232 Y159.707 E24.89514
G1 X13.391 Y159.251 E24.91763
G1 X13.738 Y158.38 E24.96128
G1 X14.027 Y157.783 E24.99217
G1 X14.587 Y156.711 E25.04848
G1 X15.774 Y154.358 E25.1712
G1 X16.86 Y152.044 E25.29023
G1 X17.844 Y149.783 E25.40505
G1 X18.808 Y147.392 E25.52509
G1 X19.658 Y145.082 E25.63971
G1 X20.461 Y142.704 E25.75658
G1 X21.211 Y140.257 E25.87575
G1 X21.872 Y137.861 E25.99149
G1 X22.475 Y135.407 E26.10916
G1 X23.012 Y132.927 E26.22731
G1 X23.467 Y130.478 E26.3433
G1 X23.86 Y127.974 E26.46132
G1 X24.179 Y125.491 E26.57789
G1 X24.429 Y122.985 E26.69516
G1 X24.609 Y120.471 E26.81252
G1 X24.716 Y117.961 E26.9295
G1 X24.754 Y115.315 E27.05273
G1 X24.754 Y104.695 E27.54724
G1 X24.717 Y102.087 E27.66869
G1 X24.61 Y99.565 E27.78623
G1 X24.433 Y97.07 E27.9027
G1 X24.185 Y94.571 E28.01964
G1 X23.867 Y92.082 E28.13648
G1 X23.473 Y89.573 E28.25474
G1 X23.014 Y87.107 E28.37154
G1 X22.48 Y84.624 E28.4898
G1 X21.893 Y82.229 E28.60462
G1 X21.215 Y79.763 E28.72371
G1 X20.486 Y77.383 E28.83961
G1 X19.675 Y74.98 E28.95771
G1 X18.795 Y72.592 E29.07621
G1 X17.871 Y70.293 E29.19159
G1 X16.863 Y67.977 E29.3092
G1 X15.81 Y65.73 E29.42475
G1 X14.091 Y62.373 E29.60037
G1 X13.532 Y61.084 E29.66579
G1 X13.257 Y60.32 E29.7036
G1 X13.144 Y59.989 E29.71989
G1 X13.072 Y59.767 E29.73075
G1 X12.821 Y58.863 E29.77444
G1 X12.696 Y58.248 E29.80366
G1 X12.664 Y58.063 E29.8124
G1 X12.587 Y57.546 E29.83674
G1 X12.531 Y57.096 E29.85786
G1 X12.455 Y56.162 E29.90149
G1 X12.448 Y55.574 E29.92888
G1 X12.452 Y55.305 E29.9414
G1 X12.471 Y54.806 E29.96466
G1 X12.515 Y54.077 E29.99866
G1 X12.611 Y53.144 E30.04234
G1 X12.717 Y52.54 E30.07089
G1 X12.767 Y52.295 E30.08253
G1 X12.878 Y51.809 E30.10575
G1 X13.017 Y51.257 E30.13225
G1 X13.285 Y50.358 E30.17593
G1 X13.626 Y49.488 E30.21945
G1 X13.789 Y49.12 E30.23819
G1 X13.936 Y48.803 E30.25446
G1 X14.079 Y48.506 E30.26981
G1 X14.521 Y47.679 E30.31347
G1 X14.822 Y47.199 E30.33985
G1 X15.068 Y46.828 E30.36058
G1 X15.296 Y46.498 E30.37926
G1 X15.529 Y46.173 E30.39788
G1 X16.108 Y45.435 E30.44156
G1 X16.534 Y44.964 E30.47113
G1 X16.75 Y44.739 E30.48565
G1 X17.038 Y44.449 E30.50468
G1 X17.432 Y44.068 E30.5302
G1 X18.134 Y43.446 E30.57388
G1 X18.697 Y43.016 E30.60686
G1 X19.26 Y42.615 E30.63905
G1 X19.662 Y42.342 E30.66168
G1 X20.465 Y41.857 E30.70536
G1 X21.006 Y41.58 E30.73366
G0 F6000 X21.178 Y41.941
G1 F1200 X21.419 Y41.826 E30.74609
G1 X21.865 Y41.626 E30.76885
G1 X22.408 Y41.397 E30.7963
G1 X23.271 Y41.076 E30.83917
G1 X23.775 Y40.927 E30.86364
G1 X23.961 Y40.877 E30.87261
G1 X24.477 Y40.752 E30.89733
G1 X24.857 Y40.67 E30.91544
G1 X25.765 Y40.516 E30.95832
G1 X26.408 Y40.454 E30.9884
G1 X27.196 Y40.403 E31.02517
G1 X27.552 Y40.386 E31.04176
G1 X27.906 Y40.375 E31.05826
G1 X28.826 Y40.387 E31.1011
G1 X29.334 Y40.427 E31.12483
G1 X29.689 Y40.464 E31.14145
G1 X30.02 Y40.504 E31.15697
G1 X30.38 Y40.553 E31.17389
G1 X31.286 Y40.717 E31.21676
G1 X32.2 Y40.967 E31.26088
G1 X32.765 Y41.149 E31.28852
G1 X33.114 Y41.268 E31.30569
G1 X33.355 Y41.355 E31.31762
G1 X34.207 Y41.705 E31.36051
G1 X34.684 Y41.94 E31.38527
G1 X35.502 Y42.37 E31.42831
G1 X37.825 Y43.548 E31.54959
G1 X40.108 Y44.627 E31.66717
G1 X42.417 Y45.638 E31.78454
G1 X44.783 Y46.597 E31.90342
G1 X47.111 Y47.462 E32.01906
G1 X49.543 Y48.289 E32.13867
G1 X51.929 Y49.027 E32.25497
G1 X54.391 Y49.712 E32.37396
G1 X56.835 Y50.319 E32.49122
G1 X59.339 Y50.867 E32.61058
G1 X61.784 Y51.326 E32.72642
G1 X64.279 Y51.725 E32.84407
G1 X66.792 Y52.053 E32.96208
G1 X69.305 Y52.31 E33.07971
G1 X71.824 Y52.496 E33.19732
G1 X74.334 Y52.609 E33.31432
G1 X77.231 Y52.654 E33.44923
G1 X142.796 Y52.654 E36.50221
G1 X145.42 Y52.617 E36.62441
G1 X147.929 Y52.51 E36.74134
G1 X150.449 Y52.332 E36.85898
G1 X152.964 Y52.083 E36.97666
G1 X155.453 Y51.764 E37.0935
G1 X158.005 Y51.363 E37.21379
G1 X160.436 Y50.911 E37.32893
G1 X162.928 Y50.375 E37.44762
G1 X165.385 Y49.773 E37.56541
G1 X167.83 Y49.1 E37.6835
G1 X170.23 Y48.365 E37.80038
G1 X172.644 Y47.551 E37.919
G1 X174.994 Y46.684 E38.03564
G1 X177.382 Y45.725 E38.15546
G1 X179.659 Y44.734 E38.2711
G1 X181.945 Y43.663 E38.38864
G1 X185.065 Y42.074 E38.55168
G1 X185.267 Y41.967 E38.56233
G1 X186.098 Y41.572 E38.60517
G1 X186.582 Y41.382 E38.62938
G1 X186.984 Y41.235 E38.64931
G1 X187.306 Y41.123 E38.66519
G1 X187.664 Y41.005 E38.68274
G1 X188.55 Y40.755 E38.72561
G1 X189.417 Y40.588 E38.76672
G1 X190.04 Y40.495 E38.79605
G1 X190.414 Y40.446 E38.81361
G1 X190.697 Y40.414 E38.82687
G1 X191.615 Y40.351 E38.86972
G1 X192.172 Y40.351 E38.89566
G1 X192.583 Y40.362 E38.9148
G1 X192.891 Y40.375 E38.92916
G1 X193.284 Y40.397 E38.94749
G1 X194.201 Y40.488 E38.99039
G1 X195.096 Y40.656 E39.0328
G1 X195.564 Y40.765 E39.05517
G1 X195.879 Y40.844 E39.07029
G1 X196.188 Y40.926 E39.08518
G1 X197.243 Y41.265 E39.13678
G1 X197.638 Y41.424 E39.15661
G1 X197.981 Y41.569 E39.17395
G1 X198.222 Y41.674 E39.18619
G1 X198.578 Y41.835 E39.20438
G1 X199.399 Y42.25 E39.24722
G1 X199.985 Y42.604 E39.2791
G1 X200.633 Y43.025 E39.31508
G1 X200.954 Y43.243 E39.33315
G1 X201.119 Y43.359 E39.34254
G1 X201.849 Y43.92 E39.38541
G1 X202.273 Y44.297 E39.41183
G1 X202.401 Y44.417 E39.42
G1 X202.746 Y44.756 E39.44252
G1 X203.04 Y45.058 E39.46214
G1 X203.653 Y45.745 E39.50502
G1 X203.942 Y46.115 E39.52688
G1 X204.162 Y46.41 E39.54401
G1 X204.464 Y46.837 E39.56837
G1 X204.777 Y47.303 E39.59451
G1 X205.257 Y48.089 E39.63739
G1 X205.637 Y48.847 E39.67687
